source/img/htmlacademy.svg

<svg xmlns="http://www.w3.org/2000/svg" viewBox="0 0 60 60"><path fill="#666666" d="M30.2 5h-.2l-19.7 2.1v36.2l19.7 11.7 19.7-11.7v-36.2l-19.5-2.1zm17 36.8l-17.2 10.2-17.2-10.2v-14.8l17.1 10.2v1.8l-11.7-7v1.8l11.8 7.1v1.9l-11.8-7v1.8l11.8 7 11.9-7.1v-7.6l5.3-3.2v15.1zm-.1-17l-4.7 2.8-2.2 1.3-10.3-6.1v1.8l8.8 5.3h-.1l-.2.1-1.3.7-7.3-4.3v1.8l5.8 3.4-1.4.9-4.3-2.6v1.8l2.9 1.7-2.9 1.7-17-10.1 17-10.2 17.2 10zm.1-1.8l-17.3-10.2-17.1 10.2v-13.6l17.2-1.8 17.2 1.8v13.6z"/></svg>

<svg id="Layer_1" data-name="Layer 1" xmlns="http://www.w3.org/2000/svg" viewBox="0 0 39.4 50"><defs><style>.cls-1{fill:#666;}</style></defs><title>htmlacademy2</title><path class="cls-1" d="M30.2,5H30L10.3,7.1V43.3L30,55,49.7,43.3V7.1Zm17,36.8L30,52,12.8,41.8V27L29.9,37.2V39L18.2,32v1.8L30,40.9v1.9l-11.8-7v1.8l11.8,7,11.9-7.1V29.9l5.3-3.2Zm-.1-17-4.7,2.8-2.2,1.3L29.9,22.8v1.8l8.8,5.3h-.1l-.2.1-1.3.7-7.3-4.3v1.8l5.8,3.4-1.4.9-4.3-2.6v1.8l2.9,1.7-2.9,1.7L12.9,25l17-10.2Zm.1-1.8L29.9,12.8,12.8,23V9.4L30,7.6,47.2,9.4Z" transform="translate(-10.3 -5)"/></svg>
